X:313
T:Tam Lin
T:The howling wind
R:Reel
S:1 Session in Sligo 1991
Z:1 Transcription:?, Chords:Mike Long
S:2 Paddy O'Brien Tune Collection
S:2 ricke~11.abc
Z:2 Transcription:?, Chords:Mike Long
M:C|
L:1/8
K:F
G,|\
"Dm"A,2DA, FA,DA,|"Bb"B,2DB, FB,DB,|\
"C"C2EC GCEC|"Bb"FEDC "C"A,DDC|\
"Dm"A,2DA, FA,DA,|"Bb"B,2DB, FB,DB,|
"C"C2EC GCEC|[1 "Dm"FEDC A,DD:|[2 "Dm"FEDC A,DD2\
|:"Dm"dA~A2 FADA|dA~A2 FADA|\
"C"cG~G2 EG~G2|
"Am"cG~G2 cdec|"Dm"dA~A2 FADA|\
"(F)"dA~A2 FADA,|"Bb"B,2B,A, B,CDE|\
[1 "C"FDEC A,D D2:|[2 "C"FDEC "(Dm)"A,DDG,|]
P:Arr. 2- And chords for Am version
"Am"A,D (3(DED) CDEC|"F"B,2DB, FB,DB,|\
"G"C2EC GCEC|"F"B,CDF "G"EDCB,|\
"Am"A,D (3(DED) CDEC|"F"B,2DB, FB,DB,|
"G"C2EC GCEG|[1 "Am"FEDC A,DDC:|[2 "Am"FEDC A,DDA\
|:"Am"dAAG FDFA|dAAG FDFA|"G"cG ~G2 EGGA|
"Em"cGGA cdec|"Am"dAAG FDFA|\
"(C)"dAAG FDCD|"F"B,A,B,C DCDE|[1 "G"FAGE FDFA:|[2 "G"FAGE "(Am)"FDD2|]
